X:18
T:Mary Willie's
T:Cat's Rambles to the Child's Saucepan, The
R:slide
D:Bothy Band: Out of the Wind, into the Sun
Z:id:hn-slide-18
M:6/8
K:D
d2e f2e|dcd BdB|g2A cBA|e2A cBA|d2e f2e|dcd BdB|g2A cBA|d3 d2A:|
|:d2e f2a|baf a2f|e2A cBA|e2A cBA|d2e f2a|baf a2f|e2A cBA|d3 d2A:|
<end>
<start>
